X: 26717
T: Mike MacDougall's
R: jig
M: 6/8
K: Dmajor
|:a|f2 a fdB|A2 B AFA|faf fed|aba a2 f|
gag gfe|faf fed|1 efe dcB|A2 c e2:|2 ecA ABc|d3 dFG||
|:A>FA BAF|ABA A2 F|G>FG BAF|E3- Ecd|
efe e2 d|cdc c2 B|1 A2 A B>AG|F2 D F2 G:|2 A2 A ABc|d3 d2||

